icons-rebrand/svg/rotate-content-light.svg

<svg xmlns="http://www.w3.org/2000/svg" width="32" height="32" viewBox="0 0 32 32" fill="none"><path d="M8.49989 19C8.49989 16.5147 10.5146 14.5 12.9999 14.5H23.9999C26.4852 14.5 28.4999 16.5147 28.4999 19V24C28.4999 26.4853 26.4852 28.5 23.9999 28.5H12.9999C10.5146 28.5 8.49989 26.4853 8.49989 24V19ZM12.9999 15.5C11.0669 15.5 9.49989 17.067 9.49989 19V24C9.49989 25.933 11.0669 27.5 12.9999 27.5H23.9999C25.9329 27.5 27.4999 25.933 27.4999 24V19C27.4999 17.067 25.9329 15.5 23.9999 15.5H12.9999Z M15.1563 3.64645C14.961 3.45119 14.6444 3.45118 14.4492 3.64644C14.2539 3.8417 14.2539 4.15829 14.4492 4.35355L16.7009 6.60532C11.5094 6.73254 8.19271 8.80345 6.18223 11.3799C4.10115 14.0469 3.45032 17.215 3.50291 19.2132C3.51018 19.4893 3.73985 19.7071 4.01589 19.6999C4.29194 19.6926 4.50983 19.4629 4.50257 19.1869C4.45514 17.3851 5.05257 14.4532 6.97062 11.9951C8.82099 9.62382 11.9299 7.65441 16.9954 7.60026L14.4492 10.1465C14.2539 10.3417 14.2539 10.6583 14.4492 10.8536C14.6444 11.0488 14.961 11.0488 15.1563 10.8536L18.3709 7.63893C18.5857 7.42415 18.5857 7.07591 18.3709 6.86112L15.1563 3.64645Z"/></svg>

<svg width="32" height="32" fill="none" xmlns="http://www.w3.org/2000/svg"><path fill-rule="evenodd" clip-rule="evenodd" d="M8.4999 19c0-2.4853 2.0147-4.5 4.5-4.5h11c2.4853 0 4.5 2.0147 4.5 4.5v5c0 2.4853-2.0147 4.5-4.5 4.5h-11c-2.4853 0-4.5-2.0147-4.5-4.5v-5zm4.5-3.5c-1.933 0-3.5 1.567-3.5 3.5v5c0 1.933 1.567 3.5 3.5 3.5h11c1.933 0 3.5-1.567 3.5-3.5v-5c0-1.933-1.567-3.5-3.5-3.5h-11z" fill="#0F0F0F"/><path d="M15.1563 3.6465a.5.5 0 10-.7071.707l2.2517 2.2518c-5.1915.1272-8.5082 2.1982-10.5187 4.7746-2.081 2.667-2.7319 5.8351-2.6793 7.8333a.5.5 0 00.9997-.0263c-.0475-1.8018.55-4.7337 2.468-7.1918C8.821 9.6238 11.93 7.6544 16.9954 7.6003l-2.5462 2.5462a.5.5 0 10.7071.7071l3.2146-3.2147a.55.55 0 000-.7778l-3.2146-3.2147z" fill="#0F0F0F"/></svg>
